X: 8547
T: Cribbies, The
R: reel
M: 4/4
K: Bminor
|:dBBA ~B3A|FAAF EFDA|dBBA FAEA|FEFA B3c|
dBBA ~B3A|FAAF EFDA|defg f2de|~f3e dcBA:|
|:dfed cedc|BAFA BcdA|dfaf a2fe|dcBA FBBc|
d2Bd cdec|BAFA BcdA|defg f2de|~f3e dcBA:|

